public/icons/unmaximize.svg

<svg xmlns="http://www.w3.org/2000/svg" width="256" height="256" viewBox="0 0 30 30"><path style="line-height:normal;font-variant-ligatures:normal;font-variant-position:normal;font-variant-caps:normal;font-variant-numeric:normal;font-variant-alternates:normal;font-feature-settings:normal;text-indent:0;text-align:start;text-decoration-line:none;text-decoration-style:solid;text-decoration-color:#000;text-transform:none;text-orientation:mixed;white-space:normal;shape-padding:0;isolation:auto;mix-blend-mode:normal;solid-color:#000;solid-opacity:1" d="M8 4v3h2V6h15v12h-2v2h4V4H8zM3 9v16h18V9H3zm2 2h14v12H5V11z" color="#000" font-weight="400" font-family="sans-serif" overflow="visible"/></svg>

<!DOCTYPE svg PUBLIC "-//W3C//DTD SVG 1.1//EN" "http://www.w3.org/Graphics/SVG/1.1/DTD/svg11.dtd">
<!-- Uploaded to: SVG Repo, www.svgrepo.com, Transformed by: SVG Repo Mixer Tools -->
<svg xmlns:dc="http://purl.org/dc/elements/1.1/" xmlns:cc="http://creativecommons.org/ns#" xmlns:rdf="http://www.w3.org/1999/02/22-rdf-syntax-ns#" xmlns:svg="http://www.w3.org/2000/svg" xmlns="http://www.w3.org/2000/svg" xmlns:sodipodi="http://sodipodi.sourceforge.net/DTD/sodipodi-0.dtd" xmlns:inkscape="http://www.inkscape.org/namespaces/inkscape" width="256px" height="256px" viewBox="0 0 30 30" version="1.1" id="svg822" inkscape:version="0.92.4 (f8dce91, 2019-08-02)" sodipodi:docname="chrome-restore.svg" fill="#000000">
<g id="SVGRepo_bgCarrier" stroke-width="0"/>
<g id="SVGRepo_tracerCarrier" stroke-linecap="round" stroke-linejoin="round"/>
<g id="SVGRepo_iconCarrier"> <defs id="defs816"/> <sodipodi:namedview id="base" pagecolor="#ffffff" bordercolor="#666666" borderopacity="1.0" inkscape:pageopacity="0.0" inkscape:pageshadow="2" inkscape:zoom="17.833333" inkscape:cx="4.4579437" inkscape:cy="15" inkscape:document-units="px" inkscape:current-layer="layer1" showgrid="true" units="px" inkscape:window-width="1366" inkscape:window-height="713" inkscape:window-x="0" inkscape:window-y="0" inkscape:window-maximized="1" inkscape:snap-global="true" inkscape:snap-bbox="true" showguides="false"> <inkscape:grid type="xygrid" id="grid816"/> </sodipodi:namedview> <metadata id="metadata819"> <rdf:rdf> <cc:work rdf:about=""> <dc:format>image/svg+xml</dc:format> <dc:type rdf:resource="http://purl.org/dc/dcmitype/StillImage"/> <dc:title/> </cc:work> </rdf:rdf> </metadata> <g inkscape:label="Layer 1" inkscape:groupmode="layer" id="layer1" transform="translate(0,-289.0625)"> <path style="color:#000000;font-style:normal;font-variant:normal;font-weight:normal;font-stretch:normal;font-size:medium;line-height:normal;font-family:sans-serif;font-variant-ligatures:normal;font-variant-position:normal;font-variant-caps:normal;font-variant-numeric:normal;font-variant-alternates:normal;font-feature-settings:normal;text-indent:0;text-align:start;text-decoration:none;text-decoration-line:none;text-decoration-style:solid;text-decoration-color:#000000;letter-spacing:normal;word-spacing:normal;text-transform:none;writing-mode:lr-tb;direction:ltr;text-orientation:mixed;dominant-baseline:auto;baseline-shift:baseline;text-anchor:start;white-space:normal;shape-padding:0;clip-rule:nonzero;display:inline;overflow:visible;visibility:visible;opacity:1;isolation:auto;mix-blend-mode:normal;color-interpolation:sRGB;color-interpolation-filters:linearRGB;solid-color:#000000;solid-opacity:1;vector-effect:none;fill:#000000;fill-opacity:1;fill-rule:nonzero;stroke:none;stroke-width:2;stroke-linecap:butt;stroke-linejoin:miter;stroke-miterlimit:4;stroke-dasharray:none;stroke-dashoffset:0;stroke-opacity:1;color-rendering:auto;image-rendering:auto;shape-rendering:auto;text-rendering:auto;enable-background:accumulate" d="M 8 4 L 8 5 L 8 7 L 10 7 L 10 6 L 25 6 L 25 18 L 23 18 L 23 20 L 27 20 L 27 4 L 8 4 z M 3 9 L 3 10 L 3 25 L 21 25 L 21 9 L 3 9 z M 5 11 L 19 11 L 19 23 L 5 23 L 5 11 z " transform="translate(0,289.0625)" id="rect1018"/> </g> </g>
</svg>
